X:2237
T:Village Carousel Waltz #2
T:As played by Omer Marcoux
C:Andy De Jarlis
M:3/4
L:1/8
Z:<http://tunes.nhcountrydance.com>.
K:Bb
DE|"Bb"F4 d2|"F7"E3 F Ac|"Bb"B6-|B4 Bc| d4 B2|F4 G2|"F"A6-|A4 CD|
E4 F2|G3 F =EF|A4 A2|A3 C CB,| A,2 C2 =E2|F2 A2 e2|"Bb"d6-|d4 DE|
F4 d2|"F7"E3 F Ac|"Bb"B6-|B4 DC| B,6|"Bb7"b2 a2 _a2|"Eb"g6-|g4 a2|
g3 e ce|G4 g2|"Bb"f3 d Bd|F4 e2|"F7" d3 c AF|E3 F Ac|"Bb"B6-| B4 |]
K:F
AB|"F"c6|"Fdim"=B4 d2|"F" c6-|c4 ((3c=Bc)| a4 g2|f4 c2|"C7"e2 d4 -|d4 GA|
B4 {c}B2|A4 c2|B6-|B4 G2| g4 e2|c4 B2|"F"A6-|A3 A B=B|
c6|"Fdim"=B4 d2|"F"c6-|c3 c =Bc| a4 g2|f4 c2|"Bb"e2 d4 -|d3 d ^cd |
f6 |e4 d2|"F"c6-|c4 A B=B|"C7" c3 c c2|B4 E2|"F"F6 |F4 |]
